X: 27591
T: Montgomery Bell
R: waltz
M: 3/4
K: Amajor
e2|:"A"EA AE BA|"A"c3(c BA)|"D"FB BA Bc|"Bm"ec Ac BA|
"A"EA AE BA|"A"c3(c BA)|"E"EG Bd cB|1 "A"A3c BA:|2 "A" A2 (a2 a)g||
"D"f3(f af)|"A" ec Ac BA|"E"EG BE GB|"A"Ac eA aA|
"D" f3(f af)|"A" ec Ac BA|"E"EG Bd cB|1 "A" A2 (a2 a)g:|2 "A" A6||

